X: 35252
T: Rose Amang The Heather, The
R: strathspey
M: 4/4
K: Dmajor
|:f>gf>e d>ed>B|A>FA<d c<e e2|f>gf>e d>ed>B|c<de>a f<d d2:|
D2 (3FED F<AA>d|B>AB>d c<e e2|(3DDD F>D F<A (3AAA|c<de>a f<d d2|
(3fdf a>f e2 (3gfe|(3dcd f>d c>d (3edc|B>c (3dcB A<df>a|g>fe<a f<d d2||

